actions/48/go-home.svg

<?xml version="1.0" encoding="UTF-8" standalone="no"?>
<!-- Created with Inkscape (http://www.inkscape.org/) -->

<svg
   xmlns:svg="http://www.w3.org/2000/svg"
   xmlns="http://www.w3.org/2000/svg"
   xmlns:xlink="http://www.w3.org/1999/xlink"
   version="1.1"
   width="48"
   height="48"
   id="svg2405">
  <defs
     id="defs2407">
    <linearGradient
       id="linearGradient2804">
      <stop
         id="stop2806"
         style="stop-color:black;stop-opacity:0"
         offset="0" />
      <stop
         id="stop2812"
         style="stop-color:black;stop-opacity:1"
         offset="0.5" />
      <stop
         id="stop2808"
         style="stop-color:black;stop-opacity:0"
         offset="1" />
    </linearGradient>
    <linearGradient
       x1="21.875"
       y1="48.000977"
       x2="21.875"
       y2="40"
       id="linearGradient2831"
       xlink:href="#linearGradient2804"
       gradientUnits="userSpaceOnUse" />
    <radialGradient
       cx="1"
       cy="44"
       r="5"
       fx="1"
       fy="44"
       id="radialGradient2829"
       xlink:href="#linearGradient2781"
       gradientUnits="userSpaceOnUse"
       gradientTransform="matrix(2,0,0,0.8,36,8.8)" />
    <linearGradient
       id="linearGradient2781">
      <stop
         id="stop2783"
         style="stop-color:black;stop-opacity:1"
         offset="0" />
      <stop
         id="stop2785"
         style="stop-color:black;stop-opacity:0"
         offset="1" />
    </linearGradient>
    <radialGradient
       cx="1"
       cy="44"
       r="5"
       fx="1"
       fy="44"
       id="radialGradient2827"
       xlink:href="#linearGradient2781"
       gradientUnits="userSpaceOnUse"
       gradientTransform="matrix(2,0,0,0.8,-13,-79.2)" />
    <linearGradient
       id="linearGradient5106">
      <stop
         id="stop5108"
         style="stop-color:#729fcf;stop-opacity:1"
         offset="0" />
      <stop
         id="stop5110"
         style="stop-color:#386ea6;stop-opacity:1"
         offset="1" />
    </linearGradient>
    <linearGradient
       x1="8.1771841"
       y1="5.8576875"
       x2="8.1771841"
       y2="15.676654"
       id="linearGradient2780"
       xlink:href="#linearGradient5106"
       gradientUnits="userSpaceOnUse"
       gradientTransform="matrix(3.137165,0,0,3.184122,-1.606682,-3.916379)" />
    <linearGradient
       id="linearGradient2782">
      <stop
         id="stop2784"
         style="stop-color:white;stop-opacity:1"
         offset="0" />
      <stop
         id="stop2786"
         style="stop-color:white;stop-opacity:0"
         offset="1" />
    </linearGradient>
    <linearGradient
       x1="26.0625"
       y1="23.265625"
       x2="29.03125"
       y2="55.265625"
       id="linearGradient2788"
       xlink:href="#linearGradient2782"
       gradientUnits="userSpaceOnUse"
       gradientTransform="translate(0,0.944685)" />
  </defs>
  <g
     id="layer1">
    <g
       transform="matrix(1,0,0,1.037397,0,-1.648602)"
       id="g2822"
       style="opacity:0.3">
      <rect
         width="10"
         height="8"
         x="-11"
         y="-48"
         transform="scale(-1,-1)"
         id="rect1892"
         style="color:black;fill:url(#radialGradient2827);fill-opacity:1;fill-rule:nonzero;stroke:none;stroke-width:1;marker:none;visibility:visible;display:inline;overflow:visible" />
      <rect
         width="10"
         height="8"
         x="38"
         y="40"
         id="rect2789"
         style="color:black;fill:url(#radialGradient2829);fill-opacity:1;fill-rule:nonzero;stroke:none;stroke-width:1;marker:none;visibility:visible;display:inline;overflow:visible" />
      <rect
         width="27"
         height="8"
         x="11"
         y="40"
         id="rect2793"
         style="color:black;fill:url(#linearGradient2831);fill-opacity:1;fill-rule:nonzero;stroke:none;stroke-width:1;marker:none;visibility:visible;display:inline;overflow:visible" />
    </g>
    <path
       d="M 24.046494,2.4518645 1.2179878,26.520272 l 5.2682488,0 0.0625,18.979728 35.9977744,-0.0625 -0.14734,-19.023654 4.475829,0.04393 -9.33445,-9.828664 0.0091,-12.1517489 -7.043771,-0.00913 0.03162,4.6634168 -6.490965,-6.6797844 z"
       id="rect5117"
       style="fill:url(#linearGradient2780);fill-opacity:1;fill-rule:nonzero;stroke:#204a87;stroke-width:1;stroke-linecap:butt;stroke-linejoin:round;stroke-miterlimit:4;stroke-opacity:1;stroke-dasharray:none;stroke-dashoffset:0;marker:none;visibility:visible;display:inline;overflow:visible" />
    <path
       d="m 24.03125,3.975935 -20.34375,21.46875 2.8125,0 c 0.2820332,-7.88e-4 0.5527421,0.110901 0.7521704,0.31033 0.1994284,0.199428 0.3111171,0.470137 0.3103296,0.75217 l 0.0625,17.9375 33.84375,-0.0625 -0.125,-17.96875 c -7.88e-4,-0.282033 0.110901,-0.552742 0.31033,-0.75217 0.199428,-0.199429 0.470137,-0.311118 0.75217,-0.31033 l 1.96875,0 -7.625,-8 c -0.180781,-0.195702 -0.281199,-0.452327 -0.28125,-0.71875 L 36.5,5.538435 l -4.9375,0 0.03125,3.59375 c 0.0019,0.430341 -0.256771,0.8190543 -0.654417,0.983597 -0.397646,0.164544 -0.855315,0.07223 -1.158083,-0.233597 l -5.75,-5.90625 z"
       id="path2778"
       style="opacity:0.41237111;fill:none;stroke:url(#linearGradient2788);stroke-width:1;stroke-linecap:butt;stroke-linejoin:round;stroke-miterlimit:4;stroke-opacity:1;stroke-dasharray:none;stroke-dashoffset:0;marker:none;visibility:visible;display:inline;overflow:visible" />
  </g>
</svg>

<?xml version="1.0" encoding="UTF-8" standalone="no"?>
<!-- Created with Inkscape (http://www.inkscape.org/) -->
<svg
   xmlns:dc="http://purl.org/dc/elements/1.1/"
   xmlns:cc="http://creativecommons.org/ns#"
   xmlns:rdf="http://www.w3.org/1999/02/22-rdf-syntax-ns#"
   xmlns:svg="http://www.w3.org/2000/svg"
   xmlns="http://www.w3.org/2000/svg"
   xmlns:xlink="http://www.w3.org/1999/xlink"
   xmlns:sodipodi="http://sodipodi.sourceforge.net/DTD/sodipodi-0.dtd"
   xmlns:inkscape="http://www.inkscape.org/namespaces/inkscape"
   width="48px"
   height="48px"
   id="svg2405"
   sodipodi:version="0.32"
   inkscape:version="0.46"
   sodipodi:docname="go-home.svg"
   inkscape:output_extension="org.inkscape.output.svg.inkscape">
  <defs
     id="defs2407">
    <linearGradient
       id="linearGradient2804">
      <stop
         style="stop-color:black;stop-opacity:0;"
         offset="0"
         id="stop2806" />
      <stop
         id="stop2812"
         offset="0.5"
         style="stop-color:black;stop-opacity:1;" />
      <stop
         style="stop-color:black;stop-opacity:0;"
         offset="1"
         id="stop2808" />
    </linearGradient>
    <linearGradient
       inkscape:collect="always"
       xlink:href="#linearGradient2804"
       id="linearGradient2831"
       gradientUnits="userSpaceOnUse"
       x1="21.875"
       y1="48.000977"
       x2="21.875"
       y2="40" />
    <radialGradient
       inkscape:collect="always"
       xlink:href="#linearGradient2781"
       id="radialGradient2829"
       gradientUnits="userSpaceOnUse"
       gradientTransform="matrix(2,0,0,0.8,36,8.8)"
       cx="1"
       cy="44"
       fx="1"
       fy="44"
       r="5" />
    <linearGradient
       inkscape:collect="always"
       id="linearGradient2781">
      <stop
         style="stop-color:black;stop-opacity:1;"
         offset="0"
         id="stop2783" />
      <stop
         style="stop-color:black;stop-opacity:0;"
         offset="1"
         id="stop2785" />
    </linearGradient>
    <radialGradient
       inkscape:collect="always"
       xlink:href="#linearGradient2781"
       id="radialGradient2827"
       gradientUnits="userSpaceOnUse"
       gradientTransform="matrix(2,0,0,0.8,-13,-79.2)"
       cx="1"
       cy="44"
       fx="1"
       fy="44"
       r="5" />
    <linearGradient
       id="linearGradient5106">
      <stop
         style="stop-color:#729fcf;stop-opacity:1;"
         offset="0"
         id="stop5108" />
      <stop
         style="stop-color:#386ea6;stop-opacity:1;"
         offset="1"
         id="stop5110" />
    </linearGradient>
    <linearGradient
       inkscape:collect="always"
       xlink:href="#linearGradient5106"
       id="linearGradient2780"
       gradientUnits="userSpaceOnUse"
       gradientTransform="matrix(3.137165,0,0,3.184122,-1.606682,-3.916379)"
       x1="8.1771841"
       y1="5.8576875"
       x2="8.1771841"
       y2="15.676654" />
    <linearGradient
       inkscape:collect="always"
       id="linearGradient2782">
      <stop
         style="stop-color:white;stop-opacity:1;"
         offset="0"
         id="stop2784" />
      <stop
         style="stop-color:white;stop-opacity:0;"
         offset="1"
         id="stop2786" />
    </linearGradient>
    <linearGradient
       inkscape:collect="always"
       xlink:href="#linearGradient2782"
       id="linearGradient2788"
       x1="26.0625"
       y1="23.265625"
       x2="29.03125"
       y2="55.265625"
       gradientUnits="userSpaceOnUse"
       gradientTransform="translate(0,0.944685)" />
  </defs>
  <sodipodi:namedview
     id="base"
     pagecolor="#ffffff"
     bordercolor="#666666"
     borderopacity="1.0"
     inkscape:pageopacity="0.0"
     inkscape:pageshadow="2"
     inkscape:zoom="7"
     inkscape:cx="24"
     inkscape:cy="24"
     inkscape:current-layer="layer1"
     showgrid="true"
     inkscape:grid-bbox="true"
     inkscape:document-units="px"
     inkscape:window-width="640"
     inkscape:window-height="720"
     inkscape:window-x="800"
     inkscape:window-y="88" />
  <metadata
     id="metadata2410">
    <rdf:RDF>
      <cc:Work
         rdf:about="">
        <dc:format>image/svg+xml</dc:format>
        <dc:type
           rdf:resource="http://purl.org/dc/dcmitype/StillImage" />
      </cc:Work>
    </rdf:RDF>
  </metadata>
  <g
     id="layer1"
     inkscape:label="Layer 1"
     inkscape:groupmode="layer">
    <g
       id="g2822"
       style="opacity:0.29999999999999999"
       transform="matrix(1,0,0,1.037397,0,-1.648602)">
      <rect
         transform="scale(-1,-1)"
         y="-48"
         x="-11"
         height="8"
         width="10"
         id="rect1892"
         style="opacity:1;color:black;fill:url(#radialGradient2827);fill-opacity:1;fill-rule:nonzero;stroke:none;stroke-width:1;stroke-linecap:square;stroke-linejoin:round;marker:none;marker-start:none;marker-mid:none;marker-end:none;stroke-miterlimit:4;stroke-dasharray:none;stroke-dashoffset:1.20000057;stroke-opacity:1;visibility:visible;display:inline;overflow:visible" />
      <rect
         y="40"
         x="38"
         height="8"
         width="10"
         id="rect2789"
         style="opacity:1;color:black;fill:url(#radialGradient2829);fill-opacity:1;fill-rule:nonzero;stroke:none;stroke-width:1;stroke-linecap:square;stroke-linejoin:round;marker:none;marker-start:none;marker-mid:none;marker-end:none;stroke-miterlimit:4;stroke-dasharray:none;stroke-dashoffset:1.20000057;stroke-opacity:1;visibility:visible;display:inline;overflow:visible" />
      <rect
         y="40"
         x="11"
         height="8"
         width="27"
         id="rect2793"
         style="opacity:1;color:black;fill:url(#linearGradient2831);fill-opacity:1;fill-rule:nonzero;stroke:none;stroke-width:1;stroke-linecap:square;stroke-linejoin:round;marker:none;marker-start:none;marker-mid:none;marker-end:none;stroke-miterlimit:4;stroke-dasharray:none;stroke-dashoffset:1.20000057;stroke-opacity:1;visibility:visible;display:inline;overflow:visible" />
    </g>
    <path
       style="opacity:1;fill:url(#linearGradient2780);fill-opacity:1;fill-rule:nonzero;stroke:#204a87;stroke-width:1;stroke-linecap:butt;stroke-linejoin:round;marker:none;marker-start:none;marker-mid:none;marker-end:none;stroke-miterlimit:4;stroke-dasharray:none;stroke-dashoffset:0;stroke-opacity:1;visibility:visible;display:inline;overflow:visible"
       d="M 24.046494,2.4518645 L 1.2179878,26.520272 L 6.4862366,26.520272 L 6.5487366,45.5 L 42.546511,45.4375 L 42.399171,26.413846 L 46.875,26.457772 L 37.54055,16.629108 L 37.549608,4.4773591 L 30.505837,4.4682321 L 30.537459,9.1316489 L 24.046494,2.4518645 z"
       id="rect5117"
       sodipodi:nodetypes="cccccccccccc" />
    <path
       style="opacity:0.41237110999999999;fill:none;fill-opacity:1;fill-rule:nonzero;stroke:url(#linearGradient2788);stroke-width:1;stroke-linecap:butt;stroke-linejoin:round;marker:none;marker-start:none;marker-mid:none;marker-end:none;stroke-miterlimit:4;stroke-dasharray:none;stroke-dashoffset:0;stroke-opacity:1;visibility:visible;display:inline;overflow:visible"
       d="M 24.03125,3.975935 L 3.6875,25.444685 L 6.5,25.444685 C 6.7820332,25.443897 7.0527421,25.555586 7.2521704,25.755015 C 7.4515988,25.954443 7.5632875,26.225152 7.5625,26.507185 L 7.625,44.444685 L 41.46875,44.382185 L 41.34375,26.413435 C 41.342962,26.131402 41.454651,25.860693 41.65408,25.661265 C 41.853508,25.461836 42.124217,25.350147 42.40625,25.350935 L 44.375,25.350935 L 36.75,17.350935 C 36.569219,17.155233 36.468801,16.898608 36.46875,16.632185 L 36.5,5.538435 L 31.5625,5.538435 L 31.59375,9.132185 C 31.595602,9.562526 31.336979,9.9512393 30.939333,10.115782 C 30.541687,10.280326 30.084018,10.188009 29.78125,9.882185 L 24.03125,3.975935 z"
       id="path2778" />
  </g>
</svg>
